!!!COM: Clara Schumann
!!!CNT: Deutsch
!!!TXO: Deutsch
!!!OTL: "Die gute nacht"
!!!LYR: Ru2ckert, Friedrich
!!!OPS: Op. 
!!!ONM: No. 
!!!ENC: Leigh VanHandel
!!!YOR: Clara Schumann: Seven Songs. Kristin Norderval, Editor
!!!YOR: Hildegard Publishing Company
!!!ODT: 1841/
!!NB: Vocal melody and text encoded.
**kern	**silbe
*staff1	*
=1-	=1
*clefG2	*
*k[b-]	*
*M3/4	*
*MM[andante]	*
4r	.
4r	.
{4a	{Die
=2	=2
2a	gu-
4a	-te
=3	=3
[2.f	Nacht,
=4	=4
2.f]}	|}
=5	=5
2.r	.
=6	=6
{4b-	{die
4b-	ich
4b-	dir
=7	=7
2b-	sa-
4a}	-ge}
=8	=8
2.r	.
=9	=9
{2.dd	{Freund,
=10	=10
2ff	ho2-
4dd	-rest
=11	=11
[2.cc	du!
=12	=12
2.cc]}	|}
=13	=13
2.r	.
=14	=14
2.r	.
=15	=15
2.r	.
=16	=16
4r	.
4r	.
{4a	{Ein
=17	=17
2a	En-
4a}	-gel,}
=18	=18
4r	.
{4g	{der
4g	die
=19	=19
2b-	Bot-
4b-	-schaft
=20	=20
4b-	tra-
4a}	-ge,}
4r	.
=21	=21
{[2.dd	{geht
=22	=22
4dd]	|
4dd	ab
4dd	und
=23	=23
[2.cc	zu.
=24	=24
2cc]}	|}
4r	.
=25	=25
2.r	.
=26	=26
2.r	.
=27	=27
2.r	.
=28	=28
2.r	.
=29	=29
4r	.
4r	.
{4dd-	{Er
=30	=30
2dd-	bringt
4dd-	sie
=31	=31
2b-	dir
4b-	und
=32	=32
2a-	hat
4g-	mir
=33	=33
4g-	wie-
8f	-der
8dd-	den
8cc	Gruss
8b-	ge-
=34	=34
2.a-}	-bracht:}
=35	=35
2.r	.
=36	=36
2.r	.
=37	=37
2.r	.
=38	=38
2.r	.
=39	=39
{4a	{Dir
4a	sa-
4a	-gen
=40	=40
2g	auch
4g	des
=41	=41
2b-	Freun-
8dd	-des
8ff	|
=42	=42
4ff	Lie-
4a}	-der
4r	.
=43	=43
{2.dd	{jetzt
=44	=44
2dd	gu-
4dd	-te
=45	=45
[2.cc	Nacht.
=46	=46
2cc]}	|}
4r	.
==	==
*-	*-

